assets/images/project_fuse.svg

<?xml version="1.0" encoding="UTF-8" standalone="no"?>
<svg
   xmlns:dc="http://purl.org/dc/elements/1.1/"
   xmlns:cc="http://creativecommons.org/ns#"
   xmlns:rdf="http://www.w3.org/1999/02/22-rdf-syntax-ns#"
   xmlns:svg="http://www.w3.org/2000/svg"
   xmlns="http://www.w3.org/2000/svg"
   xmlns:sodipodi="http://sodipodi.sourceforge.net/DTD/sodipodi-0.dtd"
   xmlns:inkscape="http://www.inkscape.org/namespaces/inkscape"
   class=""
   app-context="doc-2d"
   x="0px"
   y="0px"
   width="595.2755905512"
   height="841.8897637795"
   jvs-fullPath="_new_1508865405458/Untitled"
   id="svg2"
   version="1.1"
   inkscape:version="0.91 r13725"
   sodipodi:docname="project_fuse.svg">
  <metadata
     id="metadata32">
    <rdf:RDF>
      <cc:Work
         rdf:about="">
        <dc:format>image/svg+xml</dc:format>
        <dc:type
           rdf:resource="http://purl.org/dc/dcmitype/StillImage" />
        <dc:title></dc:title>
      </cc:Work>
    </rdf:RDF>
  </metadata>
  <sodipodi:namedview
     pagecolor="#ffffff"
     bordercolor="#666666"
     borderopacity="1"
     objecttolerance="10"
     gridtolerance="10"
     guidetolerance="10"
     inkscape:pageopacity="0"
     inkscape:pageshadow="2"
     inkscape:window-width="1920"
     inkscape:window-height="1056"
     id="namedview30"
     showgrid="false"
     inkscape:zoom="1.5857392"
     inkscape:cx="536.32636"
     inkscape:cy="496.00886"
     inkscape:window-x="0"
     inkscape:window-y="24"
     inkscape:window-maximized="1"
     inkscape:current-layer="jvs-content" />
  <desc
     id="desc6" />
  <defs
     id="defs8" />
  <g
     id="jvs-guides"
     transform="matrix(1 0 0 1 0 0)" />
  <g
     id="jvs-content"
     enable-background="new">
    <g
       transform="matrix(1,0,0,1,0,0)"
       name="Layer"
       jvs-layer-color="#fb0094"
       class="jvs-layer selected"
       id="g12">
      <path
         fill="rgb(255,255,255)"
         stroke="none"
         stroke-width="1"
         stroke-linecap="butt"
         stroke-linejoin="miter"
         opacity="1"
         d="M 144.02359008789062 270.95404052734375 L 313.14837646484375 322.54339599609375 L 319.9594421386719 326.5387268066406 L 324.0516357421875 333.4466857910156 L 325.5697021484375 486.8014831542969 L 323.3632507324219 492.0716247558594 L 319.71337890625 496.0043029785156 L 200.56822204589844 541.7456665039062 L 204.1377716064453 662.1472778320312 L 154.7337188720703 661.891357421875 L 147.74508666992188 502.55352783203125 L 274.9130859375 463.010009765625 L 273.3434753417969 361.9739685058594 L 143.18698120117188 328.6806945800781 L 144.02359008789062 270.95404052734375 Z"
         transform="matrix(1 0 0 1 0 0)"
         fill-opacity="1"
         id="path14" />
      <path
         fill="rgb(81,160,255)"
         stroke="#000000"
         stroke-width="1.00"
         stroke-linecap="butt"
         stroke-linejoin="miter"
         opacity="1"
         d="M -131.22372436523438 5 10.226806640625"
         transform="matrix(1 0 0 1 0 0)"
         fill-opacity="1"
         id="path16" />
      <path
         fill="rgb(81,160,255)"
         stroke="#000000"
         stroke-width="1.00"
         stroke-linecap="butt"
         stroke-linejoin="miter"
         opacity="1"
         d="M 275.37261962890625 365.4342041015625"
         transform="matrix(1 0 0 1 0 0)"
         fill-opacity="1"
         id="path18" />
      <path
         fill="rgb(81,160,255)"
         stroke="#000000"
         stroke-width="1.00"
         stroke-linecap="butt"
         stroke-linejoin="miter"
         opacity="1"
         d="M 275.37261962890625 365.4342041015625 Z"
         transform="matrix(1 0 0 1 0 0)"
         fill-opacity="1"
         id="path20" />
      <path
         fill="rgb(81,160,255)"
         stroke="#000000"
         stroke-width="1.00"
         stroke-linecap="butt"
         stroke-linejoin="miter"
         opacity="1"
         d="M 275.3726501464844 368.2373046875"
         transform="matrix(1 0 0 1 0 0)"
         fill-opacity="1"
         id="path22" />
      <path
         fill="rgb(255,0,0)"
         stroke="none"
         stroke-width="1.00"
         stroke-linecap="butt"
         stroke-linejoin="miter"
         opacity="1"
         d="M 329.9226379394531 321.7046813964844 L 329.9226379394531 377.05987548828125 L 494.31072998046875 330.9305419921875 L 494.31072998046875 270.5372619628906 L 329.9226379394531 321.7046813964844 Z"
         transform="matrix(1 0 0 1 0 0)"
         fill-opacity="1"
         id="path24"
         style="fill:#0600ff;fill-opacity:1" />
      <path
         fill="rgb(255,0,0)"
         stroke="none"
         stroke-width="1.00"
         stroke-linecap="butt"
         stroke-linejoin="miter"
         opacity="1"
         d="M 336.1790771484375 428.30364990234375 L 336.6323547363281 486.1178283691406 L 466.6331481933594 445.83447265625 L 466.6331481933594 392.9888000488281 L 336.1790771484375 428.30364990234375 Z"
         transform="matrix(1 0 0 1 0 0)"
         fill-opacity="1"
         id="path26"
         style="fill:#0600ff;fill-opacity:1" />
      <path
         fill="rgb(255,0,0)"
         stroke="none"
         stroke-width="1.00"
         stroke-linecap="butt"
         stroke-linejoin="miter"
         opacity="1"
         d="M 325.72906494140625 500.3509216308594 L 325.72906494140625 662.2576293945312 L 278.5772399902344 662.2576293945312 L 278.02935791015625 523.7130126953125 L 325.72906494140625 500.3509216308594 Z"
         transform="matrix(1 0 0 1 0 0)"
         fill-opacity="1"
         id="path28"
         style="fill:#0600ff;fill-opacity:1" />
    </g>
  </g>
</svg>

<?xml version="1.0" encoding="utf-8"?>
<!-- Generator: Adobe Illustrator 22.1.0, SVG Export Plug-In . SVG Version: 6.00 Build 0)  -->
<svg version="1.1"
	 id="svg2" inkscape:version="0.91 r13725" sodipodi:docname="project_fuse.svg" xmlns:cc="http://creativecommons.org/ns#" xmlns:dc="http://purl.org/dc/elements/1.1/" xmlns:inkscape="http://www.inkscape.org/namespaces/inkscape" xmlns:rdf="http://www.w3.org/1999/02/22-rdf-syntax-ns#" xmlns:sodipodi="http://sodipodi.sourceforge.net/DTD/sodipodi-0.dtd" xmlns:svg="http://www.w3.org/2000/svg"
	 xmlns="http://www.w3.org/2000/svg" xmlns:xlink="http://www.w3.org/1999/xlink" x="0px" y="0px" viewBox="0 0 595.3 841.9"
	 style="enable-background:new 0 0 595.3 841.9;" xml:space="preserve">
<style type="text/css">
	.st0{enable-background:new    ;}
	.st1{fill:#FFFFFF;}
	.st2{fill:#51A0FF;stroke:#000000;}
	.st3{fill:#4E4EF9;}
</style>
<sodipodi:namedview  bordercolor="#666666" borderopacity="1" gridtolerance="10" guidetolerance="10" id="namedview30" inkscape:current-layer="jvs-content" inkscape:cx="536.32636" inkscape:cy="496.00886" inkscape:pageopacity="0" inkscape:pageshadow="2" inkscape:window-height="1056" inkscape:window-maximized="1" inkscape:window-width="1920" inkscape:window-x="0" inkscape:window-y="24" inkscape:zoom="1.5857392" objecttolerance="10" pagecolor="#ffffff" showgrid="false">
	</sodipodi:namedview>
<desc  id="desc6"></desc>
<g id="jvs-guides" transform="matrix(1 0 0 1 0 0)">
</g>
<g id="jvs-content" class="st0">
	<g id="g12" transform="matrix(1,0,0,1,0,0)">
		<path id="path14" class="st1" d="M144,271l169.1,51.6l6.8,4l4.1,6.9l1.5,153.4l-2.2,5.3l-3.6,3.9l-119.1,45.7l3.6,120.4l-49.4-0.3
			l-7-159.3L274.9,463l-1.6-101l-130.2-33.3L144,271z"/>
		<path id="path16" class="st1" d="M0,0"/>
		<path id="path18" class="st2" d="M275.4,365.4"/>
		<path id="path20" class="st2" d="M275.4,365.4"/>
		<path id="path22" class="st2" d="M275.4,368.2"/>
		<path id="path24" class="st3" d="M329.9,321.7v55.4l164.4-46.1v-60.4L329.9,321.7z"/>
		<path id="path26" class="st3" d="M336.2,428.3l0.5,57.8l130-40.3V393L336.2,428.3z"/>
		<path id="path28" class="st3" d="M325.7,500.4v161.9h-47.2L278,523.7L325.7,500.4z"/>
	</g>
</g>
</svg>
